X:7
T:Gilotte
C:Michael Praetorius
M:C|
L:1/4
K:G
|: B/c/ d d c | B>A G2 | A/G/A/B/ A/B/c/A/ | B2 G2 :|
|: B A/B/ c/B/A/G/ | A2 A2 | B/c/ d c B | A2 A2 |
B/A/B/c/ B/c/ d | G2 A2 | B A G F | G2 G2 :|
